X:1
T:168 - Chuvas de Bênçãos
T:Letra: Daniel Webster Whittle (1840-1901)
T:Trad.: Salomão Luiz Ginsburg (1867-1927)
T:Música: James McGranahan (1840-1907)
M:6/8
L:1/8
Q:1/4=100
K:Bb
V:1
"Bb"FFF FGA| B3 F3| "F"AAA "F7"ABc| "Bb"B3-B2z | "Eb"GGG BAG| "Bb"F3 B3| "Gm"BBB BAB| "F7"c3- c2z|| "Bb"d3-d_d=d| B3 F3| dcB BAB| "F"c3- c2z| "Bb7"ddd "Eb"cBG| "Bb"F3 B3| "F7"AAA ABc| "Bb"B3- B2z |]
w: 1.~Chu-vas de bên-çãos te-re-mos, É a pro-mes-sa de Deus._ Tem-pos ben-di-tos ve-re-mos, Chu-vas de bên-çãos dos céus._ Chu_vas de bên-çãos,    Chu-vas de bên-çãos dos céus;_    Go-tas so-men-te nós te-mos;    Chu-vas ro-ga-mos a Deus._
w: 2.~Chu-vas de bên-çãos te-re-mos, Vi-da  de paz e per-dão._ Os pe-ca-do-res in-dig-nos, Gra-ça dos céus ob-te-rão._
w: 3.~Chu-vas de bên-çãos te-re-mos, Man-da-nos já, ó Se-nhor!_ Dá-nos a-go-rao bom fru-to Des-ta pa-la-vra dea-mor._
w: 4.~Chu-vas de bên-çãos te-re-mos, Chu-vas man-da-das dos céus,_ Bên-çãos a to-dos os cren-tes, Bên-çãos do nos-so bom Deus._
W: 
W:
W: 1. Chuvas de bênçãos teremos,
W: É a promessa de Deus.
W: Tempos benditos veremos,
W: Chuvas de bênçãos dos céus.
W: 
W:    (Estribilho)
W:    Chuvas de bênçãos,
W:    Chuvas de bênçãos dos céus;
W:    Gotas somente nós temos;
W:    Chuvas rogamos a Deus.
W:         
W: 2. Chuvas de bênçãos teremos,
W: Vida  de paz e perdão.
W: Os pecadores indignos,
W: Graça dos céus obterão.
W: 
W:
W:
W: 3. Chuvas de bênçãos teremos,
W: Manda-nos já, ó Senhor!
W: Dá-nos agora o bom fruto
W: Desta palavra de amor.
W: 
W: 4. Chuvas de bênçãos teremos,
W: Chuvas mandadas dos céus,
W: Bênçãos a todos os crentes,
W: Bênçãos do nosso bom Deus.
W: 
W:





